X:427
T:Sweet Georgia Brown
C:Jesse Cobb (Hot Club of Nashville, Station Inn)
N:Transcribed by Steve Keating
R:bluegrass
L:1/8
Q:1/4=235
M:4/4
K:G
"G"z8 | "9-22-05""B"z8 | "E"z4 Bd fa | g^g f=f e^c d^f | d^c =cB ^A=A F^G | B^G FE D4 | 
"A"z^D E=D B,^C A,G, | zB, A,G, A,B, ^CD | EG Bd ^cB (3Ace | gb za z2 ga | "D"=f^f ^cd D^G GA | 
z=F F^F ^C2 D2 | ^G,2 A,2 zA A,C | EG FE DE =F^F | "G"GF GB z^A zB | zd z^c zd zf | 
za zg zf ga | "B"ge fg fe ^df | "E"ed B^G E3e | (3E^GB (3dBd fa ^gf | ed e^g bg ez/b/ | 
^d'=d' z6 | "A"zb ^c'a ge a^d | ea ^dA =dA c^c | AF GB AG E^C | E4 EG Bd | "Em7"ee zd ee zg | 
"B"fe ^de fg af | "Em7"gf ed ef ge | "B"f^d BB z3a | "G"ba ge "F#"^c^A FE | "F"DB, G,^G, "E"zD E^G | 
(3"A"Bc^c aE "D"Fd zA, | "G"[D2B,2] A2 [G2B,2] {F}GF | E2 Ee E^G BG | dB ^GB df af | 
^gf e^d eg bg | (3bc'^c' z3b c'b | ab ag eg a^c' | e'^c' az (3gzf ze | (3dzc (3z^cz (3AzF (3zGz | 
(3BzG (3zEz A,4 | DD A,C EG FE | DF Ac ec d2 | cd eg =f/^f/e dA | cd ^AB =AG ED | 
GE z[^DG,] [E2G,2] [D2G,2] | [EG,]D EF GA Bd | fd B2 dd Be | d/^d/f d^c BA ^GB | 
A^G E2 FG BG | ze zB eg ^ge | zd zA Bd ^A=A | zG ^G6 | zA GA df ed | ^ce dd cA AA | 
zF GB AG E^C | [E2A,2] ze z2 GA | Bd ed eg fe | ^dc Bc BA {F}GB | GF E2 EF GB | 
FE ^D2 z/F/A zA, | B,D EF GB ^AF | ^A^c ^df za ze | zg ze zd c^A/B/ | G4 F/G/B GF | 
E2 Ee E^G Bd | ^cB cd fa ^gf | ed e^g bg eb | ^d'/=d'/b z^g b4 | ze (3egb d'^c' ze | 
(3dfa ^c'b z2 (3ceg | ba ze ga =f^f | df ed cd cB | A=F ^Fd zE cD | B2 ^A2 =AG =F^F | 
DB, C^C DE =F^F | G^G A^A Bc ^cd | ^de =f^f gf g^g | g^g ag a^a =a_b | b^a bc' bc' ^c'=c' | 
^c'd' c'd' ^d'=d' ^d'e' | z4 e'b ^ga | ba g^g eB de | ^A=A _BD AD GA | E^D =DD z3{A,}B, | 
EE F2 EF zA | dB ^cB Ac eg | bg ae ge {g}ff | ed c^c AG A=c | B^A =AG EF G_B | 
(3EFe FE ^DB, DF | EF GA BG AB | dB d^d fd z2 | Bd eg (3az^a (3zbz | (3azg ze d2 e2 | 
B2 d2 A2 ^AB | G8 | z8 | "11-23-05"z4 zE ^GB | d^g Bd fa gf | e^g fe df d^c | 
BG ^G2 GF z2 | zE GB dB ^cB | A^c eg bg a2 | ga fg/f/ ef ed | BG F6 | zE GB dB cB | 
zB AG =F^F AF | =FE DB, CE (3CB,A, | z4 B,G, ^G,2 | G,4 zA, B,D | EF GA Bd gd | 
fa g2 fg fe | ^dc Bc de fa | ^g4 ze gb | d'4 zd' z2 | d'e' z=f' ze' zd' | e'4 ze' zd' | 
zc' ^c'a g2 fe | zd c^c AG zF | =F2 E^D z=D zB,/^C/ | zB, z^A, ^G,2 G,=G, | z4 G,A, B,D | 
E=F ^FB FF B^d | f^d ea gf eg | fe ^d^c B4 | ze ce gb ag | fa gd ed cA | ^AB AB =AG ED | 
[BG][BG] [BG][BG] [BG]D FD | E4 zE ^GB | d2 Bd fa g^g | e^c df dc =cB | ^A=A F^G BG FE | 
z2 zA (3EGB (3d^cB | (3AB^c (3def gf ed | ef g^g ae =ga | ba gb ^c'b ac' | d'd z4 z^c | 
dc zB ^A=A zG | =F^F AF =FE DB, | CE CB, ^A,=A, ^G,=G, | zA, B,D EB, DE | GA G/B/d eB de | 
ga bg ab zd' | e'd'/^d'/ zd' b2 za/b/ | zb zb g^g ze | ze z2 dB zB | G/^G/z GE zE D2 | 
DA,/B,/ zA, ^G,A, B,2 | z^G, zD/^D/ E=G, z2 | zA, ^CD ED EF | GB dB ^cB Ac | eg bg aa zg | 
ff ed eg fe | ^dd cc BB AG | zG FF EE FD | E/F/F E^D DA, G,A, | G,F GA BG Bd | 
eB de ga ba | bd' zb zd' zd' | g'g' g'g' g'e/z/ f'e | e'2 b2 e'b ze' | e'b e'2 be' b2 | 
e'b e'2 ae' a2 | {g}^ge' g2 =ge' g2 | fd' f2 e^c' e2 | db d2 ^ca c2 | Bg B2 f2 z=f | 
e4 zf g^g | ae ga =f^f ^cd | ^GA =F^F AF =FE | DB, CE CB, z2 | A,4 A,^A, B,A, | 
zB, A,G, z^A, B,D | EF GF G/B/d eB | de ga bd' zd' | e'b af bf a=f | ze dB eB d^A | 
Bd ^A=A G^G E^D | D2 zG, A,^A, B,D | EB, (3DEF (3GBd ^cA | (3BGF E2 (3zef (3gfe | 
(3fg^g a2 =ga eg | ed eg ^d=d c^c | A2 D^C A,A, z2 | zE GA BG AG | FG FE ^DE FD | 
EF GA Bd ed | eg fd fd z2 | zd gd BG F^A | ^cf =f=c A=F E2 | z^D G^A =AG FA | 
[GB,][GB,] [G6B,6] | z8 | 


